packages/ui/public/icons/sidebar-logo.svg

<svg viewBox="0 0 744 198" fill="none" xmlns="http://www.w3.org/2000/svg">
<path
    d="M279.568 99.0632C279.568 123.488 259.523 143.288 234.797 143.288C210.071 143.288 190.026 123.488 190.026 99.0632C190.026 74.6386 210.071 54.8386 234.797 54.8386C259.523 54.8386 279.568 74.6386 279.568 99.0632Z"
    fill="white"
  />
<path d="M234.756 0L255.693 35.822H213.819L234.756 0Z" fill="white" />
<path
    d="M305.624 28.9965L294.786 68.9507L265.176 39.7022L305.624 28.9965Z"
    fill="white"
  />
<path
    d="M305.624 169.004L265.176 158.298L294.786 129.049L305.624 169.004Z"
    fill="white"
  />
<path d="M234.756 198L213.819 162.178H255.693L234.756 198Z" fill="white" />
<path
    d="M163.888 169.003L174.726 129.049L204.336 158.298L163.888 169.003Z"
    fill="white"
  />
<path
    d="M163.888 28.9965L204.336 39.7022L174.726 68.9507L163.888 28.9965Z"
    fill="white"
  />
<path
    d="M14.8957 76.6394V132.854H3.05552V141.429H48.8883V132.854H37.4301V74.7338C41.4405 71.4944 46.9786 68.0644 52.8987 68.0644C64.3569 68.0644 70.6589 74.9244 70.6589 87.12V132.854H59.0098V141.429H104.652V132.854H93.1934V74.7338C97.2038 71.4944 102.742 68.0644 108.662 68.0644C120.311 68.0644 126.422 74.9244 126.422 87.12V132.854H114.773V141.429H160.797V132.854H148.957V81.0222C148.957 64.6343 140.745 53.0104 125.276 53.0104C112.099 53.0104 102.169 61.3949 95.1031 68.2549H92.2385C88.6101 59.6799 81.1623 53.0104 69.5131 53.0104C56.3362 53.0104 47.7425 60.8232 40.8676 67.6832H37.4301V51.1048L0 65.0155L14.8957 76.6394Z"
    fill="white"
  />
<path
    d="M326.714 76.6394V132.854H314.874V141.429H360.707V132.854H349.248V74.7338C353.259 71.4944 358.797 68.0644 364.717 68.0644C376.175 68.0644 382.477 74.9244 382.477 87.12V132.854H370.828V141.429H416.47V132.854H405.012V74.7338C409.022 71.4944 414.56 68.0644 420.48 68.0644C432.129 68.0644 438.24 74.9244 438.24 87.12V132.854H426.591V141.429H472.615V132.854H460.775V81.0222C460.775 64.6343 452.563 53.0104 437.095 53.0104C423.918 53.0104 413.987 61.3949 406.921 68.2549H404.057C400.428 59.6799 392.981 53.0104 381.331 53.0104C368.154 53.0104 359.561 60.8232 352.686 67.6832H349.248V51.1048L311.818 65.0155L326.714 76.6394Z"
    fill="white"
  />
<path
    d="M558.578 111.892C551.704 120.848 541.964 124.66 531.079 124.66C513.51 124.66 499.378 111.13 499.378 90.9311V89.5972H559.151C559.151 69.9699 545.974 53.0104 524.013 53.0104C500.524 53.0104 481.045 75.1149 481.045 99.3156C481.045 124.66 499.187 143.334 522.676 143.334C540.436 143.334 555.523 132.091 558.578 111.892ZM520.575 62.1571C530.697 62.1571 537.381 70.1605 537.381 81.975H500.142C502.815 69.2077 511.027 62.1571 520.575 62.1571Z"
    fill="white"
  />
<path
    d="M580.319 76.6394V132.854H568.479V141.429H614.503V132.854H602.854V74.7338C606.864 71.4944 612.402 68.0644 618.513 68.0644C630.162 68.0644 636.464 74.9244 636.464 87.12V132.854H624.624V141.429H670.839V132.854H658.999V81.0222C658.999 64.6343 650.596 53.0104 634.746 53.0104C622.142 53.0104 613.166 60.6327 606.291 67.6832H602.854V51.1048L565.424 65.0155L580.319 76.6394Z"
    fill="white"
  />
<path
    d="M674.105 62.5382L689.001 71.1133L688.046 118.181C688.046 134.569 699.695 143.334 713.445 143.334C728.149 143.334 739.608 134.95 744 119.324C738.462 125.041 732.542 127.518 725.667 127.518C717.264 127.518 710.007 122.563 710.007 110.749V67.8738H736.17L742.281 57.5838H710.007V34.717L674.105 62.5382Z"
    fill="white"
  />
</svg>

<svg viewBox="0 0 744 198" fill="none" xmlns="http://www.w3.org/2000/svg"><path d="M279.568 99.063c0 24.425-20.045 44.225-44.771 44.225s-44.771-19.8-44.771-44.225c0-24.424 20.045-44.224 44.771-44.224s44.771 19.8 44.771 44.224ZM234.756 0l20.937 35.822h-41.874L234.756 0ZM305.624 28.997 294.786 68.95l-29.61-29.249 40.448-10.705ZM305.624 169.004l-40.448-10.706 29.61-29.249 10.838 39.955ZM234.756 198l-20.937-35.822h41.874L234.756 198ZM163.888 169.003l10.838-39.954 29.61 29.249-40.448 10.705ZM163.888 28.997l40.448 10.705-29.61 29.249-10.838-39.954ZM14.896 76.64v56.214H3.056v8.575h45.832v-8.575H37.43v-58.12c4.01-3.24 9.549-6.67 15.469-6.67 11.458 0 17.76 6.86 17.76 19.056v45.734h-11.65v8.575h45.643v-8.575H93.193v-58.12c4.01-3.24 9.549-6.67 15.469-6.67 11.649 0 17.76 6.86 17.76 19.056v45.734h-11.649v8.575h46.024v-8.575h-11.84V81.022c0-16.388-8.212-28.012-23.681-28.012-13.177 0-23.107 8.385-30.173 15.245H92.24C88.61 59.68 81.162 53.01 69.513 53.01c-13.177 0-21.77 7.813-28.645 14.673H37.43V51.105L0 65.015 14.896 76.64ZM326.714 76.64v56.214h-11.84v8.575h45.833v-8.575h-11.459v-58.12c4.011-3.24 9.549-6.67 15.469-6.67 11.458 0 17.76 6.86 17.76 19.056v45.734h-11.649v8.575h45.642v-8.575h-11.458v-58.12c4.01-3.24 9.548-6.67 15.468-6.67 11.649 0 17.76 6.86 17.76 19.056v45.734h-11.649v8.575h46.024v-8.575h-11.84V81.022c0-16.388-8.212-28.012-23.68-28.012-13.177 0-23.108 8.385-30.174 15.245h-2.864c-3.629-8.575-11.076-15.245-22.726-15.245-13.177 0-21.77 7.813-28.645 14.673h-3.438V51.105l-37.43 13.91 14.896 11.624ZM558.578 111.892c-6.874 8.956-16.614 12.768-27.499 12.768-17.569 0-31.701-13.53-31.701-33.729v-1.334h59.773c0-19.627-13.177-36.587-35.138-36.587-23.489 0-42.968 22.105-42.968 46.306 0 25.344 18.142 44.018 41.631 44.018 17.76 0 32.847-11.243 35.902-31.442Zm-38.003-49.735c10.122 0 16.806 8.004 16.806 19.818h-37.239c2.673-12.767 10.885-19.818 20.433-19.818ZM580.319 76.64v56.214h-11.84v8.575h46.024v-8.575h-11.649v-58.12c4.01-3.24 9.548-6.67 15.659-6.67 11.649 0 17.951 6.86 17.951 19.056v45.734h-11.84v8.575h46.215v-8.575h-11.84V81.022c0-16.388-8.403-28.012-24.253-28.012-12.604 0-21.58 7.623-28.455 14.673h-3.437V51.105l-37.43 13.91 14.895 11.624ZM674.105 62.538l14.896 8.575-.955 47.068c0 16.388 11.649 25.153 25.399 25.153 14.704 0 26.163-8.384 30.555-24.01-5.538 5.717-11.458 8.194-18.333 8.194-8.403 0-15.66-4.955-15.66-16.769V67.874h26.163l6.111-10.29h-32.274V34.717l-35.902 27.821Z" fill="#fff"/></svg>
